X: 4428
M: C
L: 1/8
K: C
"_p 2nd f"(E>F) |\
|: [K:G] B>c |\
d2g2 e2g2 | d>ed>c B2d2 |\
[1 c>dc>B A2e2 | d>ed>c B2 :|\
[2 e>gf>e d>cB>A | G2g2 "_D.C."g2 |: [K:F]\
z2 |\
c4- c>=Bcf | A4- A>^GAc |
c4- c>=Bc>f |\
[1 A4- A>c=B>A | G>ed>c =B>fe>d | c2c2 c2 :|\
[2 d4- d>fe>d | c>=Bd>c _B>EA>G | F2f2 "_D.C."f2 |]


